X: 081351
T: Hen and Her Clutch
S: "Ceol Rince na hEireann" 1/117
Z: B.Black
L: 1/8
M: 4/4
R: reel
K: Ador
A3c B3G|A2 af ge d2|B2 Ac BE E2|G3A BcdB|
A3c B3G|A2 af ge d2|B2 Ac BE E2|G3A Bc d2||
efge a3g|efga ge d2|efge a2 (3bag|agge d3 z|
efge a3g|efga ge d2|efge a2 (3bag|agge d3 B||
